iconography/32x32/Fluentbit.svg

<svg width="32" height="32" viewBox="0 0 32 32" fill="none" xmlns="http://www.w3.org/2000/svg">
<path d="M11.2418 19.9565C10.2942 22.3505 7.39775 24.232 4.95274 25.383C4.10967 25.7799 4.16875 26.7901 5.10025 26.8143C7.82 26.8849 11.7382 26.2752 14.8071 24.3913C18.3201 22.2348 21.4013 17.029 22.5027 14.6957C22.4303 15.0145 21.8679 15.8435 20.1984 16.6087C18.1114 17.5652 16.1549 16.1739 15.3723 15.4348C14.5897 14.6957 10.6332 9.65217 1.9375 6C12.9375 11.5652 12.894 15.7826 11.2418 19.9565Z" stroke="#2E3141" stroke-width="2" stroke-linecap="round" stroke-linejoin="round"/>
<path d="M30.9563 10.8392C30.3331 10.6653 28.6432 10.4218 26.8693 10.8392C24.6519 11.361 24.4345 11.4479 23.391 11.1436C22.3476 10.8392 20.6519 10.1871 18.9563 11.6653C17.2606 13.1436 17.4345 14.4479 15.5215 15.5784" stroke="#2E3141" stroke-width="2" stroke-linecap="round" stroke-linejoin="round"/>
<path d="M31 10.8695C30.3479 10.8985 28.5479 11.0956 26.5653 11.6521C24.087 12.3478 23.0313 13.9687 22.0938 15.3749" stroke="#2E3141" stroke-width="2" stroke-linecap="round" stroke-linejoin="round"/>
<circle cx="21.625" cy="12.5625" r="0.9375" fill="#2E3141"/>
<path d="M1.96149 6.05146C1.61366 5.95002 0.935403 5.92973 1.00497 6.66016C1.09192 7.5732 3.47826 14.0435 11.3043 20.087" stroke="#2E3141" stroke-width="2" stroke-linecap="round" stroke-linejoin="round"/>
<path d="M15.5216 15.5654C12.9129 16.6089 5.73897 14.9132 1.82593 8.91321" stroke="#2E3141" stroke-width="2" stroke-linecap="round" stroke-linejoin="round"/>
<path d="M11.3477 20.0869C12.8984 21.3043 16.429 23.2173 19.2812 20.0869" stroke="#2E3141" stroke-width="2" stroke-linecap="round" stroke-linejoin="round"/>
</svg>

<svg width="32" height="32" fill="none" xmlns="http://www.w3.org/2000/svg"><path d="M11.242 19.956c-.948 2.395-3.844 4.276-6.29 5.427-.842.397-.783 1.407.148 1.431 2.72.07 6.638-.539 9.707-2.423 3.513-2.156 6.594-7.362 7.696-9.695-.073.319-.635 1.148-2.305 1.913-2.087.956-4.043-.435-4.826-1.174-.782-.74-4.739-5.783-13.434-9.435 11 5.565 10.956 9.783 9.304 13.956Z" stroke="#2E3141" stroke-width="2" stroke-linecap="round" stroke-linejoin="round"/><path d="M30.956 10.84c-.623-.175-2.313-.418-4.087 0-2.217.521-2.434.608-3.478.304-1.043-.305-2.74-.957-4.435.521-1.695 1.479-1.521 2.783-3.434 3.913" stroke="#2E3141" stroke-width="2" stroke-linecap="round" stroke-linejoin="round"/><path d="M31 10.87c-.652.029-2.452.226-4.435.782-2.478.696-3.534 2.317-4.471 3.723" stroke="#2E3141" stroke-width="2" stroke-linecap="round" stroke-linejoin="round"/><circle cx="21.625" cy="12.563" r=".938" fill="#2E3141"/><path d="M1.961 6.051c-.347-.101-1.026-.121-.956.61.087.912 2.473 7.383 10.3 13.426" stroke="#2E3141" stroke-width="2" stroke-linecap="round" stroke-linejoin="round"/><path d="M15.522 15.565c-2.61 1.044-9.783-.652-13.696-6.652m9.522 11.174c1.55 1.217 5.081 3.13 7.933 0" stroke="#2E3141" stroke-width="2" stroke-linecap="round" stroke-linejoin="round"/></svg>
